X:1
T:Title
L:1/8
M:4/4
K:F
V:1 treble nm="Grand Piano"
V:1
 z4 z[Q:1/4=100] AAA | A2 A2- AAAG | BAGF EGGG | G2 G2- GGGF | AGFE DFED | ^CD E2- EGFE | %6
 DE F2- FAG^F | GA B2- BGAB | cB A2- AdcB | AGFE DFED | ^CE D4 z2 |] %11

